X:1
T:Title
%%score { ( 1 3 ) | ( 2 4 ) }
L:1/8
M:4/4
K:F
V:1 treble nm="Grand Piano"
V:3 treble 
V:2 bass 
V:4 bass 
V:1
 z4[Q:1/4=100] [CFA]2 [DFB]2 | [CGc]2 [CFA]2 [B,DG]2 [A,F]2 | z4 z2 [Dd]2 | %3
 [Gd]2 [Gc]2 [Gc]2 [GB]2 |[M:2/4] A2- [FA]2 | A2 =B2 |[M:4/4] c2 A2 [_Ae]2 [=A_e]2 | %7
 [_Ae]2 z D c2 d2 | e2 [Af]2 [Gd]2 [F=B]2 |[M:2/4] [Ec]4 | F3 F |[M:4/4] z2 [Ec]2 [FB]4 | %12
 [FA]2 [EG]2 [FB]2 [FA]2 | [Fc]2 [FB]2 [G_e]2 dc |[M:2/4] d2- [Bd]2 | [CAc]2 [_EAc]2 | %16
[M:4/4] [DAc]2 .[D^FB]2 [DGB]2 [DGB]2 | [CGB]2 .[CEA]2 [CFA]2 [Fc]2 | F2 z2 z4 |[M:3/4] [A,CF]6 |] %20
V:2
 z4 F,2 F,2 | E,2 F,2 B,,2 D,2 | [C,C]2 [C,C]2 [G,B,]2 .[G,B,]2 | [E,G,]2 [E,C]2 [D,C]2 [E,C]2 | %4
[M:2/4] [F,C]4 | [F,A,D]2 [F,A,_E]2 |[M:4/4] [E,A,E]2 [E,CE]2 [E,=B,]2 [^F,B,]2 | %7
 [E,=B,]2 .[E,E]2[K:treble] [A,CE]2 [A,CF]2 | [G,CG]2[K:bass] [F,C]2 [G,=B,]2 [G,D]2 | %9
[M:2/4] [C,C]4 | [D,A,]3 [D,A,] |[M:4/4] [B,,B,]2 .[C,A,]2 [D,F,]2 z [DF] | %12
 [C,C]2 [C,C]2 [D,B,]2 [F,C]2 | [_E,A,]2 [D,B,]2 [C,B,]2 [F,A,F]2 |[M:2/4] B,2- [D,B,]2 | F,2 F,2 | %16
[M:4/4] ^F,2 z[K:treble] A G,2[K:bass] =F,2 | E,2 z G F,2 [A,,F,]2 | B,,2 G,,A,, B,,2 C,2 | %19
[M:3/4] F,,6 |] %20
V:3
 x8 | x8 | [FA]2 [EG]2 [DB]2 z [F,A,] | x8 |[M:2/4] G2 z2 | x4 |[M:4/4] x8 | z2 [_A=B]2 z4 | x8 | %9
[M:2/4] x4 | x4 |[M:4/4] [Dd]2 z G, z2 B,A | x8 | x8 |[M:2/4] F2 z2 | x4 |[M:4/4] x8 | x8 | %18
 D2- [DEB][CFA] [B,DG]2 [B,CE]2 |[M:3/4] x6 |] %20
V:4
 x8 | x8 | x8 | x8 |[M:2/4] x4 | x4 |[M:4/4] x8 | x4[K:treble] x4 | x2[K:bass] x6 |[M:2/4] x4 | %10
 x4 |[M:4/4] z4 z2 G,,2 | x8 | x8 |[M:2/4] B,,2 z2 | x4 |[M:4/4] z2 D,2[K:treble] z4[K:bass] | %17
 z2 C,2 z4 | x8 |[M:3/4] x6 |] %20

